<?xml version="1.0" encoding="UTF-8"?>
<map version="1.10" tiledversion="1.11.2" orientation="orthogonal" renderorder="right-down" compressionlevel="0" width="6" height="9" tilewidth="16" tileheight="16" infinite="0" nextlayerid="9" nextobjectid="1">
 <tileset firstgid="1" name="1" tilewidth="16" tileheight="16" tilecount="40" columns="8">
  <image source="townInterior_minimal.png" width="128" height="80"/>
 </tileset>
 <tileset firstgid="41" name="p" tilewidth="16" tileheight="16" tilecount="64" columns="4">
  <image source="paths.png" width="64" height="256"/>
 </tileset>
 <tileset firstgid="105" name="town" tilewidth="16" tileheight="16" tilecount="9" columns="3">
  <image source="townInterior_2_minimal.png" width="48" height="48"/>
 </tileset>
 <layer id="1" name="Back" width="6" height="9">
  <data encoding="csv">
105,105,105,105,105,105,
108,108,108,108,108,108,
111,111,111,111,111,111,
6,7,6,7,6,7,
14,15,14,15,14,19,
22,23,22,23,22,19,
14,15,31,1073741854,1073741854,1073741854,
22,23,20,21,21,21,
14,15,20,21,21,21
</data>
 </layer>
 <layer id="2" name="Buildings" width="6" height="9">
  <data encoding="csv">
0,26,0,0,0,0,
0,34,0,0,1,2,
3,4,4,5,9,10,
11,12,12,13,17,18,
0,0,0,0,0,0,
0,0,0,0,0,0,
0,0,0,0,0,0,
0,0,0,0,0,0,
33,106,107,0,35,36
</data>
 </layer>
 <layer id="3" name="Paths" width="6" height="9">
  <data encoding="csv">
0,0,0,0,0,0,
0,0,0,0,0,0,
0,0,0,0,0,0,
0,0,0,0,0,0,
0,0,0,0,0,0,
0,0,48,0,0,0,
0,0,0,0,0,0,
0,0,0,0,0,0,
0,0,0,0,0,0
</data>
 </layer>
 <layer id="4" name="Front" width="6" height="9">
  <data encoding="csv">
0,0,8,0,0,0,
0,0,16,0,0,0,
38,37,39,29,0,0,
0,0,0,0,0,0,
0,0,0,0,0,0,
0,0,0,0,0,0,
0,0,0,0,0,0,
25,0,0,0,27,28,
0,0,0,0,0,0
</data>
 </layer>
 <objectgroup id="5" name="Back"/>
 <objectgroup id="6" name="Buildings"/>
 <objectgroup id="7" name="Paths"/>
 <objectgroup id="8" name="Front"/>
</map>
